frontend/public/svg/finance/cash.svg

<svg width="178" height="99" viewBox="0 0 178 99" fill="none" xmlns="http://www.w3.org/2000/svg">
<g clip-path="url(#clip0)">
<path d="M175.446 22.4286C175.274 18.7531 174.158 15.1584 172.93 11.4888C171.438 7.02572 168.139 4.21136 163.39 3.34565C161.156 2.89878 158.893 2.6136 156.618 2.49237C142.539 1.98634 128.445 1.52225 114.814 1.07266L102.703 0.672385C102.689 0.671054 102.675 0.671054 102.662 0.672385C96.536 0.844783 90.4813 1.0059 84.4988 1.15599C69.0853 1.54979 54.5285 1.92918 39.7301 2.54285C32.9554 2.82442 26.3242 3.94027 18.9804 5.26082C12.9073 6.35231 8.17657 10.0238 4.91916 16.1724C2.34959 21.0221 2.04622 26.2932 1.75284 31.3903L1.74771 31.4808C0.828839 47.3741 -0.204906 65.3879 0.421896 83.0314C0.664741 89.8849 3.71356 94.1307 9.74201 96.0118C12.5855 96.9037 15.5406 97.3901 18.5199 97.4557C42.0372 97.8364 61.1989 98.0464 78.8234 98.1173C79.4948 98.1199 80.1715 98.1213 80.8535 98.1213C88.8352 98.1213 97.5743 97.9342 108.141 97.5391C117.953 97.1722 127.915 96.5579 137.549 95.9639L138.08 95.9311C139.295 95.8562 140.509 95.7939 141.728 95.7302C147.509 95.4316 153.487 95.1224 159.245 93.4888C159.646 93.3759 160.048 93.2644 160.451 93.1528C162.351 92.6684 164.22 92.0646 166.044 91.3452C173.765 88.1121 177.558 82.5923 177.321 74.9368L177.189 70.7395C176.7 54.9061 176.194 38.5279 175.446 22.4286ZM11.2883 32.021C11.4117 27.5664 11.6754 23.0082 14.3729 19.002C15.7366 16.8332 17.8843 15.2738 20.3687 14.6484C23.2566 13.9533 26.2267 13.3259 29.1021 12.7201C30.0616 12.5179 31.0242 12.3143 31.9899 12.1091C30.819 22.241 22.4796 30.2791 11.2883 32.021ZM9.33435 78.7521C9.52732 75.2531 9.48059 71.6761 9.43595 68.2165C9.41823 66.8481 9.3992 65.4739 9.39526 64.0936C11.3341 63.8567 12.9028 64.5372 14.7117 65.4495C21.6032 68.9195 27.043 74.6066 31.3486 82.8358C31.8737 83.8354 32.3332 84.9098 32.8635 86.1536C33.0263 86.5329 33.1967 86.9314 33.3792 87.3527C31.7501 87.291 30.1677 87.2398 28.6207 87.1899C24.4451 87.0587 20.5014 86.9274 16.5916 86.6183C11.799 86.235 9.08495 83.2946 9.33435 78.7494V78.7521ZM144.365 10.8443C144.744 10.7624 145.131 10.7265 145.519 10.7373C150.376 11.1311 155.309 11.5662 160.081 11.9883L160.555 12.0303C162.856 12.2337 164.21 13.4296 164.575 15.5831C165.027 18.238 165.394 20.8882 165.782 23.6934C165.916 24.6595 166.053 25.6398 166.192 26.6344C155.328 26.538 145.412 19.3629 144.365 10.8416V10.8443ZM145.219 29.5814C150.354 33.1716 156.319 35.5625 163.456 36.891C164.108 37.0117 164.756 37.1536 165.47 37.3117L166.064 37.443V52.5801C165.7 52.6412 165.336 52.6977 164.972 52.7548C163.738 52.9269 162.514 53.1617 161.305 53.4584C156.059 54.8367 151.246 57.9294 146.997 62.6471C140.618 69.7307 136.678 77.1027 134.959 85.1671C122.674 87.566 58.7584 89.031 44.3466 87.2444C42.9085 78.3753 37.5418 71.7726 31.938 65.9543C25.1304 58.8868 18.0852 55.5257 9.81926 55.4187L10.731 40.6728C18.7462 40.4383 26.4455 37.4962 32.5744 32.3256C38.7703 27.1799 41.3472 20.0422 43.2336 10.9289C74.2671 9.26512 105.71 9.59073 135.11 10.2031C135.13 10.5024 135.147 10.7937 135.164 11.0759C135.202 12.0073 135.289 12.936 135.427 13.8581C135.888 17.0112 136.995 20.035 138.679 22.7401C140.364 25.4453 142.589 27.7735 145.215 29.5788L145.219 29.5814ZM149.638 84.5239C149.047 84.6099 148.449 84.6965 147.85 84.7864C150.599 71.575 159.921 62.0353 167.153 61.1933V65.0827C167.153 68.697 167.149 72.2366 167.159 75.7769C167.165 78.1679 166.068 79.8764 163.987 80.7185C161.229 81.8375 158.395 82.7584 155.507 83.4751C153.601 83.945 151.674 84.2246 149.634 84.5213L149.638 84.5239Z" fill="black"/>
<path d="M101.837 26.7349C94.1918 21.6332 81.4936 22.2882 74.1078 28.1644C68.2657 32.7358 64.3067 39.2937 62.9821 46.5923C61.2323 55.6307 64.8699 63.4123 72.9586 67.9409C76.8585 70.1436 81.2514 71.3263 85.7296 71.3782C85.8182 71.3782 85.9035 71.3782 85.9921 71.3782C99.644 71.3782 109.118 64.7171 111.978 53.0981C113.145 48.1936 112.802 43.0504 110.992 38.345C109.182 33.6395 105.991 29.5922 101.837 26.7349ZM82.6612 33.2923C83.1508 33.2979 83.6365 33.3866 84.0966 33.5548C84.1773 33.5855 84.264 33.5981 84.35 33.5917C91.2054 33.2701 95.8556 35.3834 98.9863 40.2206C101.587 44.2393 102.066 48.805 100.299 52.7476C98.5518 56.6508 94.8803 59.3063 90.2242 60.0329C85.7611 60.7292 81.9195 60.2784 78.4757 58.6546C73.9903 56.5386 72.2261 53.2116 72.9218 48.1821C73.5158 44.2907 75.0739 40.6099 77.4538 37.4746C79.2325 35.0127 80.6522 33.2943 82.6612 33.2943V33.2923Z" fill="black"/>
</g>
<defs>
<clipPath id="clip0">
<rect width="177.211" height="97.7943" fill="white" transform="translate(0.230225 0.612793)"/>
</clipPath>
</defs>
</svg>

<svg xmlns="http://www.w3.org/2000/svg" width="178" height="99" fill="none" viewBox="0 0 178 99"><g fill="#000" clip-path="url(#a)"><path d="M175.446 22.429c-.172-3.676-1.288-7.27-2.516-10.94-1.492-4.463-4.791-7.278-9.54-8.143a47 47 0 0 0-6.772-.854c-14.079-.506-28.173-.97-41.804-1.42l-12.111-.4a5954 5954 0 0 1-18.204.484c-15.414.394-29.97.773-44.769 1.387-6.775.281-13.406 1.397-20.75 2.718-6.073 1.091-10.803 4.763-14.06 10.911-2.57 4.85-2.874 10.121-3.167 15.218l-.005.09C.828 47.375-.205 65.389.422 83.032c.243 6.854 3.292 11.1 9.32 12.98a31.7 31.7 0 0 0 8.778 1.445c23.517.38 42.679.59 60.303.661q1.008.004 2.03.004c7.982 0 16.721-.187 27.288-.582 9.812-.367 19.774-.981 29.408-1.575l.531-.033c1.215-.075 2.429-.137 3.648-.2 5.781-.3 11.759-.609 17.517-2.242q.601-.17 1.206-.336a47 47 0 0 0 5.593-1.808c7.721-3.233 11.514-8.753 11.277-16.408l-.132-4.197c-.489-15.834-.995-32.212-1.743-48.311M11.288 32.02c.124-4.455.387-9.013 3.085-13.019a9.95 9.95 0 0 1 5.996-4.354c2.888-.695 5.858-1.322 8.733-1.928l2.888-.61C30.819 22.24 22.48 30.28 11.288 32.02M9.334 78.752c.193-3.499.147-7.076.102-10.535-.018-1.369-.037-2.743-.04-4.123 1.938-.237 3.507.443 5.316 1.356 6.891 3.47 12.331 9.157 16.637 17.386.525 1 .984 2.074 1.515 3.318l.515 1.199a841 841 0 0 0-4.758-.163c-4.176-.131-8.12-.263-12.03-.572-4.792-.383-7.506-3.323-7.257-7.869zm135.031-67.908a4.8 4.8 0 0 1 1.154-.107c4.857.394 9.79.83 14.562 1.251l.474.042c2.301.204 3.655 1.4 4.02 3.553.452 2.655.819 5.305 1.207 8.11l.41 2.941c-10.864-.096-20.78-7.271-21.827-15.792zm.854 18.737c5.135 3.59 11.1 5.982 18.237 7.31.652.12 1.3.263 2.014.42l.594.132V52.58q-.546.09-1.092.175a37 37 0 0 0-3.667.703c-5.246 1.379-10.059 4.471-14.308 9.19-6.379 7.083-10.319 14.455-12.038 22.52-12.285 2.398-76.2 3.863-90.612 2.076-1.439-8.869-6.805-15.471-12.409-21.29C25.13 58.887 18.085 55.526 9.819 55.42l.912-14.746a35.5 35.5 0 0 0 21.843-8.347c6.196-5.146 8.773-12.284 10.66-21.397 31.033-1.664 62.476-1.338 91.876-.726q.03.45.054.873.056 1.398.263 2.782a23.14 23.14 0 0 0 9.788 15.72zm4.419 54.943q-.888.128-1.788.262c2.749-13.211 12.071-22.75 19.303-23.593v3.89c0 3.614-.004 7.154.006 10.694.006 2.39-1.091 4.1-3.172 4.942a63 63 0 0 1-8.48 2.756c-1.906.47-3.833.75-5.873 1.046z"/><path d="M101.837 26.735c-7.645-5.102-20.343-4.447-27.73 1.43a30.26 30.26 0 0 0-11.125 18.427c-1.75 9.039 1.888 16.82 9.977 21.349a26.6 26.6 0 0 0 12.77 3.437h.263c13.652 0 23.126-6.66 25.986-18.28a24.97 24.97 0 0 0-10.141-26.363m-19.176 6.557c.49.006.975.095 1.436.263a.6.6 0 0 0 .253.037c6.855-.322 11.506 1.791 14.636 6.629 2.601 4.018 3.08 8.584 1.313 12.527-1.747 3.903-5.419 6.558-10.075 7.285-4.463.696-8.305.245-11.748-1.378-4.486-2.116-6.25-5.443-5.554-10.473a23.6 23.6 0 0 1 4.532-10.707c1.779-2.462 3.198-4.18 5.207-4.18z"/></g><defs><clipPath id="a"><path fill="#fff" d="M.23.613h177.211v97.794H.231z"/></clipPath></defs></svg>
